<?xml version="1.0" encoding="UTF-8"?>
<map version="1.10" tiledversion="1.12.2" orientation="orthogonal" renderorder="right-down" width="30" height="20" tilewidth="32" tileheight="32" infinite="0" nextlayerid="3" nextobjectid="40">
 <editorsettings>
  <export target="../../../src/maps/sector4/level4.lua" format="lua"/>
 </editorsettings>
 <tileset firstgid="1" name="Props" class="Saw" tilewidth="32" tileheight="32" tilecount="8" columns="0">
  <grid orientation="orthogonal" width="1" height="1"/>
  <tile id="0" type="Tile">
   <image source="../../../src/assets/images/test.png" width="32" height="32"/>
  </tile>
  <tile id="1" type="Placeholder">
   <image source="../../../src/assets/images/placeholder.png" width="32" height="32"/>
  </tile>
  <tile id="3" type="Spike">
   <image source="../../../src/assets/images/spike.png" width="32" height="16"/>
  </tile>
  <tile id="4" type="Goal">
   <image source="../../../src/assets/images/goal.png" width="32" height="32"/>
  </tile>
  <tile id="5" type="Saw">
   <image source="../../../src/assets/images/saw.png" width="32" height="32"/>
  </tile>
  <tile id="6" type="Spring">
   <image source="../../../src/assets/images/spring.png" width="32" height="32"/>
  </tile>
  <tile id="7" type="Booster">
   <image source="../../../src/assets/images/booster.png" width="32" height="32"/>
  </tile>
  <tile id="8" type="Laser">
   <image source="../../../src/assets/images/laser.png" width="32" height="32"/>
  </tile>
 </tileset>
 <layer id="1" name="Layout" width="30" height="20">
  <data encoding="csv">
1,1,1,1,1,1,1,1,1,1,1,1,1,1,1,1,1,1,1,1,1,1,1,1,1,1,1,1,1,1,
0,0,0,0,0,0,0,0,0,0,0,0,0,0,0,0,0,0,0,0,0,0,0,0,0,0,0,0,0,0,
0,0,0,0,0,0,0,0,0,0,0,0,0,0,0,0,0,0,0,0,0,0,0,0,0,0,0,0,0,0,
0,0,0,0,0,0,0,0,0,0,0,0,0,0,0,0,0,0,0,0,0,0,0,0,0,0,0,0,0,0,
0,0,0,0,0,0,0,0,0,0,0,0,0,0,0,0,0,0,0,0,0,0,0,0,0,0,0,0,0,0,
0,0,0,0,0,0,0,0,0,0,0,0,0,0,0,0,0,0,0,0,0,0,0,0,0,0,0,0,0,0,
0,0,0,0,0,0,0,0,0,0,0,0,0,0,0,0,0,0,0,0,0,0,0,0,0,0,0,0,0,0,
0,0,0,0,0,0,0,0,0,0,0,0,0,0,0,0,0,0,0,0,0,0,0,0,0,0,0,0,0,0,
0,0,0,0,0,0,0,0,0,0,0,0,0,0,0,0,0,0,0,0,0,0,0,0,0,0,0,0,0,0,
0,0,0,0,0,0,0,0,0,0,0,0,0,0,0,0,0,0,0,0,0,0,0,0,0,0,0,0,0,0,
0,0,0,0,0,0,0,0,0,0,0,0,0,0,0,0,0,0,0,0,0,0,0,0,0,0,0,0,0,0,
0,0,0,0,0,0,0,0,0,0,0,0,0,0,0,0,0,0,0,0,0,0,0,0,0,0,0,0,0,0,
0,0,0,0,0,0,0,0,0,0,0,0,0,0,0,0,0,0,0,0,0,0,0,0,0,0,0,0,0,0,
0,0,0,0,0,0,0,0,0,0,0,0,0,0,0,0,0,0,0,0,0,0,0,0,0,0,0,0,0,0,
0,0,0,0,0,0,0,0,0,0,0,0,0,0,0,0,0,0,0,0,0,0,0,0,0,0,0,0,0,0,
0,0,0,0,0,0,0,0,0,0,0,0,0,0,0,0,0,0,0,0,0,0,0,0,0,0,0,0,0,0,
0,0,0,0,0,0,0,0,0,0,0,0,0,0,0,0,0,0,0,0,0,0,0,0,0,0,0,0,0,0,
0,0,0,0,0,0,0,0,0,0,0,0,0,0,0,0,0,0,0,0,0,0,0,0,0,0,0,0,0,0,
0,0,0,0,0,0,0,0,0,0,0,0,0,0,0,0,0,0,0,0,0,0,0,0,0,0,0,0,0,0,
1,1,1,0,0,0,1,0,0,0,1,0,0,0,1,0,0,0,1,0,0,0,1,0,0,0,1,1,1,1
</data>
 </layer>
 <objectgroup id="2" name="Objects">
  <object id="23" name="SpinningPlat" gid="1" x="512" y="544" width="32" height="32">
   <properties>
    <property name="height" type="int" value="7"/>
    <property name="speed" type="int" value="3"/>
    <property name="width" type="int" value="1"/>
   </properties>
  </object>
  <object id="24" name="Spawnpoint" gid="2" x="32" y="608" width="32" height="32"/>
  <object id="25" name="Laser" gid="9" x="832" y="448" width="32" height="32">
   <properties>
    <property name="group" type="int" value="1"/>
   </properties>
  </object>
  <object id="26" name="Laser" gid="9" x="-96" y="448" width="32" height="32">
   <properties>
    <property name="group" type="int" value="1"/>
   </properties>
  </object>
  <object id="27" name="Booster" gid="8" x="896" y="576" width="32" height="32">
   <properties>
    <property name="speed" type="int" value="5000"/>
   </properties>
  </object>
  <object id="28" name="Trigger" gid="2" x="896" y="320" width="32" height="32">
   <properties>
    <property name="id" value="invertGrav"/>
    <property name="radius" type="int" value="64"/>
   </properties>
  </object>
  <object id="29" name="Goal" gid="5" x="32" y="96" width="32" height="32"/>
  <object id="30" name="Spike" gid="4" x="768" y="48" width="32" height="16" rotation="180"/>
  <object id="33" name="Spike" gid="4" x="640" y="48" width="32" height="16" rotation="180"/>
  <object id="34" name="Spike" gid="4" x="512" y="48" width="32" height="16" rotation="180"/>
  <object id="35" name="Spike" gid="4" x="384" y="48" width="32" height="16" rotation="180"/>
  <object id="36" name="Spike" gid="4" x="256" y="48" width="32" height="16" rotation="180"/>
  <object id="37" name="Spike" gid="4" x="128" y="48" width="32" height="16" rotation="180"/>
  <object id="38" name="InviSpike" gid="4" x="448" y="288" width="32" height="16">
   <properties>
    <property name="radius" type="int" value="64"/>
   </properties>
  </object>
  <object id="39" name="Trigger" gid="2" x="192" y="64" width="32" height="32">
   <properties>
    <property name="id" value="spawnSaw"/>
    <property name="radius" type="int" value="64"/>
   </properties>
  </object>
 </objectgroup>
</map>
