<?xml version="1.0" encoding="UTF-8"?>
<map version="1.10" tiledversion="1.12.2" orientation="orthogonal" renderorder="right-down" width="30" height="20" tilewidth="32" tileheight="32" infinite="0" nextlayerid="5" nextobjectid="64">
 <editorsettings>
  <export target="../../../src/maps/sector4/level3.lua" format="lua"/>
 </editorsettings>
 <tileset firstgid="1" name="Props" class="Saw" tilewidth="32" tileheight="32" tilecount="8" columns="0">
  <grid orientation="orthogonal" width="1" height="1"/>
  <tile id="0" type="Tile">
   <image source="../../../src/assets/images/test.png" width="32" height="32"/>
  </tile>
  <tile id="1" type="Placeholder">
   <image source="../../../src/assets/images/placeholder.png" width="32" height="32"/>
  </tile>
  <tile id="3" type="Spike">
   <image source="../../../src/assets/images/spike.png" width="32" height="16"/>
  </tile>
  <tile id="4" type="Goal">
   <image source="../../../src/assets/images/goal.png" width="32" height="32"/>
  </tile>
  <tile id="5" type="Saw">
   <image source="../../../src/assets/images/saw.png" width="32" height="32"/>
  </tile>
  <tile id="6" type="Spring">
   <image source="../../../src/assets/images/spring.png" width="32" height="32"/>
  </tile>
  <tile id="7" type="Booster">
   <image source="../../../src/assets/images/booster.png" width="32" height="32"/>
  </tile>
  <tile id="8" type="Laser">
   <image source="../../../src/assets/images/laser.png" width="32" height="32"/>
  </tile>
 </tileset>
 <layer id="1" name="Layout" width="30" height="20">
  <data encoding="csv">
1,1,1,0,0,0,0,0,0,0,0,0,0,0,0,0,0,0,0,0,0,0,0,0,0,0,0,1,1,1,
1,1,1,0,0,0,0,0,0,0,0,0,0,0,0,0,0,0,0,0,0,0,0,0,0,0,0,1,1,1,
1,1,1,0,0,0,0,0,0,0,0,0,0,0,0,0,0,0,0,0,0,0,0,0,0,0,0,1,1,1,
1,1,1,1,1,1,0,0,0,0,0,0,0,0,0,0,0,0,0,0,0,0,0,0,1,0,0,1,1,1,
1,1,1,0,0,0,0,0,0,0,0,0,0,0,0,0,0,0,0,0,0,0,0,0,1,0,0,1,1,1,
1,1,1,0,0,0,0,0,0,0,0,0,0,0,0,0,0,0,0,0,0,0,0,0,1,0,0,1,1,1,
1,1,1,0,0,0,0,0,0,0,0,0,0,0,0,0,0,0,0,0,0,0,0,0,0,0,0,1,1,1,
1,1,1,0,0,0,0,0,0,0,0,0,0,0,0,0,0,0,0,0,0,0,0,0,0,0,0,1,1,1,
1,1,1,0,0,0,0,0,0,0,0,0,0,0,0,0,0,0,0,0,0,0,0,0,0,0,0,1,1,1,
1,1,1,0,0,0,0,0,0,0,0,0,0,0,0,0,0,0,0,0,0,0,0,0,0,0,0,1,1,1,
1,1,1,0,0,0,0,0,0,0,0,0,0,0,0,0,0,0,0,0,0,0,0,0,0,0,0,1,1,1,
1,1,1,0,0,0,0,0,0,0,0,0,0,0,0,0,0,0,0,0,0,0,0,0,0,0,0,1,1,1,
1,1,1,0,0,0,0,0,0,0,0,0,0,0,0,0,0,0,0,0,0,0,0,0,0,0,0,1,1,1,
1,1,1,0,0,0,0,0,0,0,0,0,0,0,0,0,0,0,0,0,0,0,0,0,0,0,0,1,1,1,
1,1,1,0,0,0,0,0,0,0,0,0,0,0,0,0,0,0,0,0,0,0,0,0,0,0,0,1,1,1,
1,1,1,0,0,0,0,0,0,0,0,0,0,0,0,0,0,0,0,0,0,0,0,0,0,0,0,1,1,1,
1,1,1,0,0,0,0,0,0,0,0,0,0,0,0,0,0,0,0,0,0,0,0,0,0,0,0,1,1,1,
1,1,1,0,0,0,0,0,0,0,0,0,0,0,0,0,0,0,0,0,0,0,0,0,0,0,0,1,1,1,
1,1,1,0,0,0,0,0,0,0,0,0,0,0,0,0,0,0,0,0,0,0,0,0,0,0,0,1,1,1,
1,1,1,0,0,0,0,0,0,0,0,0,0,0,0,0,0,0,0,0,0,0,0,0,0,0,0,1,1,1
</data>
 </layer>
 <objectgroup id="4" name="FutureObjects">
  <object id="13" name="Laser" gid="9" x="224" y="256" width="32" height="32">
   <properties>
    <property name="group" type="int" value="2"/>
   </properties>
  </object>
  <object id="14" name="Laser" gid="9" x="320" y="544" width="32" height="32">
   <properties>
    <property name="group" type="int" value="2"/>
    <property name="intermiTime" type="int" value="1"/>
   </properties>
  </object>
  <object id="15" name="Laser" gid="9" x="448" y="256" width="32" height="32">
   <properties>
    <property name="group" type="int" value="2"/>
   </properties>
  </object>
  <object id="16" name="Laser" gid="9" x="448" y="256" width="32" height="32">
   <properties>
    <property name="group" type="int" value="3"/>
   </properties>
  </object>
  <object id="17" name="Laser" gid="9" x="608" y="544" width="32" height="32">
   <properties>
    <property name="group" type="int" value="3"/>
    <property name="intermiTime" type="int" value="1"/>
    <property name="isDisabled" type="bool" value="true"/>
   </properties>
  </object>
  <object id="18" name="Goal" gid="5" x="96" y="416" width="32" height="32"/>
  <object id="59" gid="2" x="96" y="256" width="32" height="32"/>
 </objectgroup>
 <objectgroup id="2" name="Objects">
  <properties>
   <property name="speed" type="int" value="10"/>
   <property name="width" type="int" value="10"/>
  </properties>
  <object id="1" name="Saw" gid="6" x="64" y="0" width="32" height="32"/>
  <object id="2" name="Saw" gid="6" x="64" y="-32" width="32" height="32"/>
  <object id="3" name="Saw" gid="6" x="64" y="-64" width="32" height="32"/>
  <object id="4" name="Spawnpoint" gid="2" x="128" y="96" width="32" height="32"/>
  <object id="5" name="Goal" gid="5" x="800" y="608" width="32" height="32"/>
  <object id="6" name="SpinningPlat" gid="1" x="352" y="128" width="32" height="32">
   <properties>
    <property name="speed" type="int" value="5"/>
    <property name="width" type="int" value="5"/>
   </properties>
  </object>
  <object id="7" name="SpinningPlat" gid="1" x="576" y="128" width="32" height="32">
   <properties>
    <property name="isCounterclockwise" type="bool" value="true"/>
    <property name="speed" type="int" value="4"/>
    <property name="width" type="int" value="6"/>
   </properties>
  </object>
  <object id="9" name="Laser" gid="9" x="768" y="224" width="32" height="32">
   <properties>
    <property name="group" type="int" value="1"/>
   </properties>
  </object>
  <object id="10" name="Laser" gid="9" x="-32" y="224" width="32" height="32">
   <properties>
    <property name="group" type="int" value="1"/>
   </properties>
  </object>
  <object id="11" name="Trigger" gid="2" x="800" y="384" width="32" height="32">
   <properties>
    <property name="id" value="changeGravity"/>
    <property name="radius" type="int" value="128"/>
   </properties>
  </object>
  <object id="19" name="Saw" gid="6" x="64" y="-96" width="32" height="32"/>
  <object id="20" name="Saw" gid="6" x="64" y="-128" width="32" height="32"/>
  <object id="21" name="Saw" gid="6" x="64" y="-160" width="32" height="32"/>
  <object id="22" name="Saw" gid="6" x="864" y="0" width="32" height="32"/>
  <object id="23" name="Saw" gid="6" x="864" y="-32" width="32" height="32"/>
  <object id="24" name="Saw" gid="6" x="864" y="-64" width="32" height="32"/>
  <object id="25" name="Saw" gid="6" x="864" y="-96" width="32" height="32"/>
  <object id="26" name="Saw" gid="6" x="864" y="-128" width="32" height="32"/>
  <object id="27" name="Saw" gid="6" x="864" y="-160" width="32" height="32"/>
  <object id="34" name="Saw" gid="6" x="96" y="-160" width="32" height="32"/>
  <object id="35" name="Saw" gid="6" x="128" y="-160" width="32" height="32"/>
  <object id="36" name="Saw" gid="6" x="160" y="-160" width="32" height="32"/>
  <object id="37" name="Saw" gid="6" x="0" y="-224" width="32" height="32"/>
  <object id="38" name="Saw" gid="6" x="32" y="-224" width="32" height="32"/>
  <object id="62" name="Trigger" gid="2" x="448" y="416" width="32" height="32">
   <properties>
    <property name="id" value="invokeSaw"/>
    <property name="radius" type="int" value="64"/>
   </properties>
  </object>
  <object id="63" name="Trigger" gid="2" x="160" y="416" width="32" height="32">
   <properties>
    <property name="id" value="invokeSaw2"/>
    <property name="radius" type="int" value="48"/>
   </properties>
  </object>
 </objectgroup>
</map>
