<?xml version="1.0" encoding="UTF-8"?>
<map version="1.10" tiledversion="1.12.2" orientation="orthogonal" renderorder="right-down" width="30" height="20" tilewidth="32" tileheight="32" infinite="0" nextlayerid="3" nextobjectid="18">
 <editorsettings>
  <export target="../../../src/maps/sector5/level2.lua" format="lua"/>
 </editorsettings>
 <tileset firstgid="1" name="Props" class="Saw" tilewidth="32" tileheight="32" tilecount="8" columns="0">
  <grid orientation="orthogonal" width="1" height="1"/>
  <tile id="0" type="Tile">
   <image source="../../../src/assets/images/test.png" width="32" height="32"/>
  </tile>
  <tile id="1" type="Placeholder">
   <image source="../../../src/assets/images/placeholder.png" width="32" height="32"/>
  </tile>
  <tile id="3" type="Spike">
   <image source="../../../src/assets/images/spike.png" width="32" height="16"/>
  </tile>
  <tile id="4" type="Goal">
   <image source="../../../src/assets/images/goal.png" width="32" height="32"/>
  </tile>
  <tile id="5" type="Saw">
   <image source="../../../src/assets/images/saw.png" width="32" height="32"/>
  </tile>
  <tile id="6" type="Spring">
   <image source="../../../src/assets/images/spring.png" width="32" height="32"/>
  </tile>
  <tile id="7" type="Booster">
   <image source="../../../src/assets/images/booster.png" width="32" height="32"/>
  </tile>
  <tile id="8" type="Laser">
   <image source="../../../src/assets/images/laser.png" width="32" height="32"/>
  </tile>
 </tileset>
 <layer id="1" name="Layout" width="30" height="20">
  <data encoding="csv">
1,1,1,1,1,1,1,1,1,1,1,1,1,1,1,1,1,1,1,1,1,1,1,1,1,1,1,1,1,1,
0,0,0,0,0,0,0,0,0,0,0,0,0,0,0,0,0,0,0,0,0,0,0,0,0,0,0,0,0,0,
0,0,0,0,0,0,0,0,0,0,0,0,0,0,0,0,0,0,0,0,0,0,0,0,0,0,0,0,0,0,
0,0,0,0,0,0,0,0,0,0,0,0,0,0,0,0,0,0,0,0,0,0,0,0,0,0,0,0,0,0,
0,0,0,1,1,1,1,1,1,1,1,1,1,1,1,1,1,1,1,1,1,1,1,1,1,1,1,0,0,0,
0,0,0,1,0,0,0,0,0,0,0,0,0,0,0,0,0,0,0,0,0,0,0,0,0,0,0,0,0,0,
0,0,0,1,0,0,0,0,0,0,0,0,0,0,0,0,0,0,0,0,0,0,0,0,0,0,0,0,0,0,
0,0,0,1,0,0,0,0,0,0,0,0,0,0,0,0,0,0,0,0,0,0,0,0,0,0,0,0,0,0,
0,0,0,1,0,0,0,0,0,0,0,0,0,0,0,0,0,0,0,0,0,0,0,0,0,0,0,0,0,0,
0,0,0,1,0,0,0,0,0,0,0,0,0,0,0,0,0,0,0,0,0,0,0,0,0,0,0,0,0,0,
0,0,0,1,0,0,0,0,0,0,0,0,0,0,0,0,0,0,0,0,0,0,0,0,0,0,0,0,0,0,
0,0,0,1,1,0,0,1,1,1,1,1,1,1,1,1,1,1,0,0,0,0,0,0,0,0,0,0,0,0,
0,0,0,1,0,0,0,0,0,0,0,0,0,0,0,0,0,0,0,0,0,0,0,0,0,0,0,0,0,0,
0,0,0,1,0,0,0,0,0,0,0,0,0,0,0,0,0,0,0,0,0,0,0,1,1,1,1,1,1,1,
0,0,0,1,0,0,0,1,1,1,1,1,1,1,1,1,1,1,1,1,1,1,1,1,1,1,1,1,1,1,
0,0,0,1,0,0,0,0,0,0,0,0,0,0,0,0,0,0,0,0,0,0,0,0,0,0,0,0,0,0,
0,0,0,1,0,0,0,0,0,0,0,0,0,0,0,0,0,0,0,0,0,0,0,0,0,0,0,0,0,0,
0,0,0,1,0,0,0,0,0,0,0,0,0,0,0,0,0,0,0,0,0,0,0,0,0,0,0,0,0,0,
0,0,0,1,0,0,0,0,0,0,0,0,0,0,0,0,0,0,0,0,0,0,0,0,0,0,0,0,0,0,
0,0,0,1,0,0,0,0,0,0,0,0,0,0,0,0,0,0,0,0,0,0,0,0,0,0,0,0,0,0
</data>
 </layer>
 <objectgroup id="2" name="Objects">
  <object id="1" name="Spawnpoint" gid="2" x="32" y="640" width="32" height="32"/>
  <object id="2" name="FakeGoal" gid="5" x="160" y="224" width="32" height="32">
   <properties>
    <property name="newX" type="int" value="896"/>
    <property name="newY" type="int" value="512"/>
    <property name="radius" type="int" value="48"/>
   </properties>
  </object>
  <object id="8" name="Laser" gid="9" x="256" y="480" width="32" height="32">
   <properties>
    <property name="group" type="int" value="1"/>
    <property name="intermiTime" type="int" value="1"/>
   </properties>
  </object>
  <object id="9" name="Laser" gid="9" x="288" y="32" width="32" height="32">
   <properties>
    <property name="group" type="int" value="2"/>
    <property name="intermiTime" type="int" value="1"/>
    <property name="isDisabled" type="bool" value="true"/>
   </properties>
  </object>
  <object id="10" name="Laser" gid="9" x="352" y="480" width="32" height="32">
   <properties>
    <property name="group" type="int" value="2"/>
    <property name="intermiTime" type="int" value="1"/>
    <property name="isDisabled" type="bool" value="true"/>
   </properties>
  </object>
  <object id="11" name="Laser" gid="9" x="384" y="32" width="32" height="32">
   <properties>
    <property name="group" type="int" value="1"/>
    <property name="intermiTime" type="int" value="1"/>
   </properties>
  </object>
  <object id="12" name="Laser" gid="9" x="512" y="480" width="32" height="32">
   <properties>
    <property name="group" type="int" value="1"/>
    <property name="intermiTime" type="int" value="1"/>
   </properties>
  </object>
  <object id="13" name="Laser" gid="9" x="576" y="32" width="32" height="32">
   <properties>
    <property name="group" type="int" value="2"/>
    <property name="intermiTime" type="int" value="1"/>
    <property name="isDisabled" type="bool" value="true"/>
   </properties>
  </object>
  <object id="14" name="Trigger" gid="2" x="640" y="320" width="32" height="32">
   <properties>
    <property name="id" value="movLasers"/>
    <property name="radius" type="int" value="160"/>
   </properties>
  </object>
  <object id="15" gid="2" x="896" y="512" width="32" height="32"/>
  <object id="16" gid="2" x="448" y="160" width="32" height="32"/>
  <object id="17" name="InviSpike" gid="4" x="864" y="496" width="32" height="16" rotation="180">
   <properties>
    <property name="radius" type="int" value="48"/>
   </properties>
  </object>
 </objectgroup>
</map>
