<?xml version="1.0" encoding="UTF-8"?>
<map version="1.10" tiledversion="1.12.2" orientation="orthogonal" renderorder="right-down" width="30" height="20" tilewidth="32" tileheight="32" infinite="0" nextlayerid="3" nextobjectid="72">
 <editorsettings>
  <export target="../../../src/maps/sector5/level4.lua" format="lua"/>
 </editorsettings>
 <tileset firstgid="1" name="Props" class="Saw" tilewidth="32" tileheight="32" tilecount="8" columns="0">
  <grid orientation="orthogonal" width="1" height="1"/>
  <tile id="0" type="Tile">
   <image source="../../../src/assets/images/test.png" width="32" height="32"/>
  </tile>
  <tile id="1" type="Placeholder">
   <image source="../../../src/assets/images/placeholder.png" width="32" height="32"/>
  </tile>
  <tile id="3" type="Spike">
   <image source="../../../src/assets/images/spike.png" width="32" height="16"/>
  </tile>
  <tile id="4" type="Goal">
   <image source="../../../src/assets/images/goal.png" width="32" height="32"/>
  </tile>
  <tile id="5" type="Saw">
   <image source="../../../src/assets/images/saw.png" width="32" height="32"/>
  </tile>
  <tile id="6" type="Spring">
   <image source="../../../src/assets/images/spring.png" width="32" height="32"/>
  </tile>
  <tile id="7" type="Booster">
   <image source="../../../src/assets/images/booster.png" width="32" height="32"/>
  </tile>
  <tile id="8" type="Laser">
   <image source="../../../src/assets/images/laser.png" width="32" height="32"/>
  </tile>
 </tileset>
 <layer id="1" name="Layout" width="30" height="20">
  <data encoding="csv">
0,0,0,0,0,0,0,0,0,0,0,0,0,0,1,1,1,1,0,0,0,0,1,0,1,0,1,0,0,0,
1,1,1,0,0,0,0,0,0,0,0,0,0,0,0,0,0,0,0,0,0,0,0,0,0,0,0,0,0,0,
1,0,0,1,0,0,0,0,0,0,0,0,0,0,0,0,0,0,0,0,0,0,0,0,0,0,0,0,0,0,
1,0,0,0,1,0,0,0,0,0,0,0,0,0,0,0,0,0,0,0,0,0,0,0,0,0,0,0,0,0,
1,0,0,0,0,1,1,1,1,1,1,1,1,1,1,1,1,1,1,1,1,1,0,1,1,1,1,0,0,0,
1,0,0,0,0,0,0,0,0,0,0,0,0,0,0,0,0,0,0,0,0,0,0,0,0,0,0,0,0,0,
1,0,0,0,0,0,0,0,0,0,0,0,0,0,0,0,0,0,0,0,0,0,0,0,0,0,0,0,0,0,
1,0,0,0,0,0,0,0,0,0,0,0,0,0,0,0,0,0,0,0,0,0,0,0,0,0,0,0,0,0,
1,0,0,0,0,0,0,0,0,0,0,0,0,0,0,0,0,0,0,0,0,0,0,0,0,0,0,0,0,0,
1,0,0,0,0,0,0,0,0,0,0,0,0,0,0,0,0,0,0,0,0,0,0,0,0,0,0,0,0,0,
1,0,0,0,0,0,0,0,0,1,1,1,0,1,1,1,1,0,1,0,0,1,0,1,1,1,1,0,0,1,
1,0,0,0,0,0,0,0,1,0,0,0,0,0,0,0,0,0,0,0,0,0,0,0,0,0,0,0,0,0,
1,0,0,0,0,0,0,1,0,0,0,0,0,0,0,0,0,0,0,0,0,0,0,0,0,0,0,0,0,0,
1,0,0,0,0,0,1,0,0,0,0,0,0,0,0,0,0,0,0,0,0,0,0,0,0,0,0,0,0,0,
1,0,0,0,0,0,0,0,0,0,0,0,0,0,0,0,0,0,0,0,0,0,0,0,0,0,0,0,0,0,
1,0,0,0,0,0,0,0,0,0,0,0,0,0,0,0,0,0,0,0,0,0,0,0,0,0,0,0,0,0,
0,0,0,0,0,0,0,0,0,0,0,0,0,0,0,0,0,0,0,0,0,0,0,0,0,0,0,0,0,0,
0,0,0,0,0,0,0,0,0,0,0,0,0,0,0,0,0,0,0,0,0,0,0,0,0,0,0,0,0,0,
0,0,0,0,0,0,0,0,0,0,0,0,0,0,0,0,0,0,0,0,0,0,0,0,0,0,0,0,0,0,
1,1,1,1,1,1,1,1,1,1,0,0,0,0,0,0,0,0,0,0,0,0,0,0,0,0,0,1,1,1
</data>
 </layer>
 <objectgroup id="2" name="Objects">
  <object id="1" name="Spawnpoint" gid="2" x="32" y="32" width="32" height="32"/>
  <object id="2" name="Goal" gid="5" x="896" y="608" width="32" height="32"/>
  <object id="40" name="Trigger" gid="2" x="288" y="128" width="32" height="32">
   <properties>
    <property name="id" value="overflow"/>
    <property name="radius" type="int" value="64"/>
   </properties>
  </object>
  <object id="42" name="FallTile" gid="1" x="576" y="32" width="32" height="32">
   <properties>
    <property name="isUp" type="bool" value="false"/>
    <property name="radius" type="int" value="100"/>
   </properties>
  </object>
  <object id="43" name="FallTile" gid="1" x="608" y="32" width="32" height="32">
   <properties>
    <property name="isUp" type="bool" value="false"/>
    <property name="radius" type="int" value="100"/>
   </properties>
  </object>
  <object id="44" name="FallTile" gid="1" x="640" y="32" width="32" height="32">
   <properties>
    <property name="isUp" type="bool" value="false"/>
    <property name="radius" type="int" value="100"/>
   </properties>
  </object>
  <object id="45" name="FallTile" gid="1" x="672" y="32" width="32" height="32">
   <properties>
    <property name="isUp" type="bool" value="false"/>
    <property name="radius" type="int" value="100"/>
   </properties>
  </object>
  <object id="46" name="FallTile" gid="1" x="704" y="160" width="32" height="32">
   <properties>
    <property name="isUp" type="bool" value="true"/>
    <property name="radius" type="int" value="64"/>
   </properties>
  </object>
  <object id="47" name="FallTile" gid="1" x="736" y="32" width="32" height="32">
   <properties>
    <property name="isUp" type="bool" value="false"/>
    <property name="radius" type="int" value="100"/>
   </properties>
  </object>
  <object id="49" name="FallTile" gid="1" x="800" y="32" width="32" height="32">
   <properties>
    <property name="isUp" type="bool" value="false"/>
    <property name="radius" type="int" value="100"/>
   </properties>
  </object>
  <object id="50" name="FallTile" gid="1" x="704" y="352" width="32" height="32">
   <properties>
    <property name="isUp" type="bool" value="true"/>
    <property name="radius" type="int" value="64"/>
   </properties>
  </object>
  <object id="51" name="Laser" gid="9" x="928" y="384" width="32" height="32">
   <properties>
    <property name="group" type="int" value="1"/>
   </properties>
  </object>
  <object id="52" name="Laser" gid="9" x="288" y="384" width="32" height="32">
   <properties>
    <property name="group" type="int" value="1"/>
   </properties>
  </object>
  <object id="53" name="FallTile" gid="1" x="384" y="352" width="32" height="32">
   <properties>
    <property name="isUp" type="bool" value="true"/>
    <property name="radius" type="int" value="48"/>
   </properties>
  </object>
  <object id="54" name="FallTile" gid="1" x="544" y="352" width="32" height="32">
   <properties>
    <property name="isUp" type="bool" value="true"/>
    <property name="radius" type="int" value="64"/>
   </properties>
  </object>
  <object id="56" name="FallTile" gid="1" x="864" y="352" width="32" height="32">
   <properties>
    <property name="isUp" type="bool" value="false"/>
    <property name="radius" type="int" value="48"/>
   </properties>
  </object>
  <object id="57" name="FallTile" gid="1" x="896" y="352" width="32" height="32">
   <properties>
    <property name="isUp" type="bool" value="false"/>
    <property name="radius" type="int" value="48"/>
   </properties>
  </object>
  <object id="58" name="Laser" gid="9" x="1120" y="0" width="32" height="32">
   <properties>
    <property name="group" type="int" value="0"/>
   </properties>
  </object>
  <object id="59" name="Laser" gid="9" x="-192" y="0" width="32" height="32">
   <properties>
    <property name="group" type="int" value="0"/>
   </properties>
  </object>
  <object id="60" name="InviSpike" gid="4" x="288" y="320" width="32" height="16">
   <properties>
    <property name="radius" type="int" value="48"/>
   </properties>
  </object>
  <object id="61" name="FallTile" gid="1" x="384" y="608" width="32" height="32">
   <properties>
    <property name="isUp" type="bool" value="false"/>
    <property name="radius" type="int" value="48"/>
   </properties>
  </object>
  <object id="62" name="FallTile" gid="1" x="512" y="608" width="32" height="32">
   <properties>
    <property name="isUp" type="bool" value="false"/>
    <property name="radius" type="int" value="48"/>
    <property name="speed" type="int" value="500"/>
   </properties>
  </object>
  <object id="63" name="FallTile" gid="1" x="640" y="608" width="32" height="32">
   <properties>
    <property name="isUp" type="bool" value="true"/>
    <property name="radius" type="int" value="48"/>
    <property name="speed" type="int" value="100"/>
   </properties>
  </object>
  <object id="64" name="FallTile" gid="1" x="768" y="608" width="32" height="32">
   <properties>
    <property name="isUp" type="bool" value="false"/>
    <property name="radius" type="int" value="48"/>
   </properties>
  </object>
  <object id="65" name="FallTile" gid="1" x="0" y="608" width="32" height="32">
   <properties>
    <property name="endX" type="int" value="1024"/>
    <property name="radius" type="int" value="160"/>
   </properties>
  </object>
  <object id="67" name="FallTile" gid="1" x="0" y="576" width="32" height="32">
   <properties>
    <property name="endX" type="int" value="1024"/>
    <property name="radius" type="int" value="160"/>
   </properties>
  </object>
  <object id="68" name="FallTile" gid="1" x="0" y="544" width="32" height="32">
   <properties>
    <property name="endX" type="int" value="1024"/>
    <property name="radius" type="int" value="160"/>
   </properties>
  </object>
  <object id="70" name="FallTile" gid="1" x="640" y="352" width="32" height="32">
   <properties>
    <property name="isUp" type="bool" value="false"/>
    <property name="radius" type="int" value="64"/>
   </properties>
  </object>
  <object id="71" name="FallTile" gid="1" x="608" y="352" width="32" height="32">
   <properties>
    <property name="isUp" type="bool" value="false"/>
    <property name="radius" type="int" value="64"/>
   </properties>
  </object>
 </objectgroup>
</map>
