<?xml version="1.0" encoding="UTF-8"?>
<map version="1.10" tiledversion="1.12.2" orientation="orthogonal" renderorder="right-down" width="30" height="20" tilewidth="32" tileheight="32" infinite="0" nextlayerid="3" nextobjectid="41">
 <editorsettings>
  <export target="../../../maps/sector3/level3.lua" format="lua"/>
 </editorsettings>
 <tileset firstgid="1" name="Props" class="Saw" tilewidth="32" tileheight="32" tilecount="7" columns="0">
  <grid orientation="orthogonal" width="1" height="1"/>
  <tile id="0" type="Tile">
   <image source="../../../assets/images/test.png" width="32" height="32"/>
  </tile>
  <tile id="1" type="Placeholder">
   <image source="../../../assets/images/placeholder.png" width="32" height="32"/>
  </tile>
  <tile id="3" type="Spike">
   <image source="../../../assets/images/spike.png" width="32" height="16"/>
  </tile>
  <tile id="4" type="Goal">
   <image source="../../../assets/images/goal.png" width="32" height="32"/>
  </tile>
  <tile id="5" type="Saw">
   <image source="../../../assets/images/saw.png" width="32" height="32"/>
  </tile>
  <tile id="6" type="Spring">
   <image source="../../../assets/images/spring.png" width="32" height="32"/>
  </tile>
  <tile id="7" type="Booster">
   <image source="../../../assets/images/booster.png" width="32" height="32"/>
  </tile>
 </tileset>
 <layer id="1" name="Layout" width="30" height="20">
  <data encoding="csv">
1,1,0,0,0,0,0,0,0,0,0,1,1,1,1,1,1,1,1,1,1,0,0,0,0,0,1,0,0,1,
1,1,1,0,0,0,0,0,0,0,0,1,0,0,0,0,0,0,0,1,0,0,0,0,0,0,1,0,0,1,
1,1,1,1,1,1,0,0,1,0,0,1,0,0,0,0,0,0,0,1,0,0,0,0,0,0,1,0,0,1,
1,0,0,0,0,1,0,0,1,0,0,1,0,1,1,0,0,0,0,1,0,1,0,0,0,0,1,0,0,1,
1,0,0,0,0,1,0,0,1,0,0,1,0,1,0,0,0,0,0,1,0,1,0,0,0,0,1,0,0,1,
1,0,0,0,0,1,0,0,1,0,0,1,0,1,0,0,0,0,1,1,0,1,0,0,0,0,1,0,0,1,
1,0,0,0,0,1,0,0,1,0,0,1,0,1,0,0,0,0,0,1,0,1,0,0,0,0,1,0,0,1,
1,0,0,0,0,1,0,0,1,0,0,1,0,1,0,0,0,0,0,1,0,1,1,0,0,0,1,0,0,1,
1,0,0,0,0,1,0,0,1,0,0,1,0,1,0,0,0,0,0,1,0,1,0,0,0,0,1,0,0,1,
1,0,0,0,0,0,0,0,0,0,0,1,0,1,1,0,0,0,0,1,0,1,0,0,0,0,1,0,0,1,
1,0,0,0,0,0,0,0,0,0,0,1,0,1,0,0,0,0,0,1,0,1,0,0,0,0,1,0,0,1,
1,0,0,1,1,1,1,1,1,1,1,1,0,1,0,0,0,0,0,1,0,1,0,0,0,0,0,0,0,1,
1,0,0,0,0,0,0,0,0,0,0,0,0,1,0,0,0,0,0,1,0,1,0,0,0,0,0,0,0,1,
1,0,0,0,0,0,0,0,0,0,0,0,0,1,0,0,0,0,1,1,0,1,0,0,0,0,0,0,0,1,
1,0,0,0,0,0,0,0,0,0,0,0,0,1,0,0,0,0,0,1,0,1,0,0,0,0,0,0,0,1,
1,0,0,0,0,0,1,1,1,1,1,1,0,1,0,0,0,0,0,1,0,1,0,0,0,0,0,0,0,1,
1,0,0,0,0,0,0,0,0,0,0,0,0,1,0,0,0,0,0,1,0,1,0,0,0,0,0,0,0,1,
1,0,0,0,0,0,0,0,0,0,0,0,0,1,1,0,0,0,0,1,0,1,0,0,0,0,0,0,1,1,
1,0,0,0,0,0,0,0,0,0,0,0,0,1,0,0,0,0,0,0,0,1,0,0,0,0,0,1,1,1,
1,0,0,0,0,0,0,0,0,0,0,0,0,1,0,0,0,0,1,1,1,1,0,0,0,0,1,1,1,1
</data>
 </layer>
 <objectgroup id="2" name="Objects">
  <object id="1" name="Spawnpoint" gid="2" x="128" y="64" width="32" height="32"/>
  <object id="2" name="Goal" gid="5" x="864" y="576" width="32" height="32"/>
  <object id="5" name="Saw" gid="6" x="352" y="0" width="32" height="32"/>
  <object id="7" name="Saw" gid="6" x="352" y="-64" width="32" height="32"/>
  <object id="8" name="Saw" gid="6" x="352" y="-32" width="32" height="32"/>
  <object id="9" name="Saw" gid="6" x="32" y="0" width="32" height="32"/>
  <object id="10" name="Saw" gid="6" x="32" y="-32" width="32" height="32"/>
  <object id="11" name="Saw" gid="6" x="32" y="-64" width="32" height="32"/>
  <object id="12" name="MovSaw" gid="6" x="288" y="256" width="32" height="32"/>
  <object id="13" name="MovSaw" gid="6" x="320" y="256" width="32" height="32"/>
  <object id="14" name="Trigger" gid="2" x="256" y="256" width="32" height="32">
   <properties>
    <property name="id" value="movSaw"/>
    <property name="radius" type="int" value="128"/>
   </properties>
  </object>
  <object id="16" name="Spring" gid="7" x="96" y="640" width="32" height="32"/>
  <object id="17" name="Trigger" gid="2" x="256" y="480" width="32" height="32">
   <properties>
    <property name="id" value="futureSaw"/>
    <property name="radius" type="int" value="48"/>
   </properties>
  </object>
  <object id="18" name="FutureSaw" gid="6" x="-32" y="480" width="32" height="32">
   <properties>
    <property name="speed" type="int" value="2500"/>
   </properties>
  </object>
  <object id="19" name="Booster" gid="8" x="384" y="448" width="32" height="32">
   <properties>
    <property name="speed" type="int" value="3500"/>
   </properties>
  </object>
  <object id="24" name="InviSpike" gid="4" x="448" y="288" width="32" height="16">
   <properties>
    <property name="radius" type="int" value="64"/>
   </properties>
  </object>
  <object id="25" name="InviSpike" gid="4" x="576" y="160" width="32" height="16">
   <properties>
    <property name="radius" type="int" value="64"/>
   </properties>
  </object>
  <object id="28" name="InviSpike" gid="4" x="576" y="416" width="32" height="16">
   <properties>
    <property name="radius" type="int" value="64"/>
   </properties>
  </object>
  <object id="29" name="InviSpike" gid="4" x="448" y="544" width="32" height="16">
   <properties>
    <property name="radius" type="int" value="64"/>
   </properties>
  </object>
  <object id="30" name="Booster" gid="8" x="640" y="608" width="32" height="32">
   <properties>
    <property name="speed" type="int" value="4000"/>
   </properties>
  </object>
  <object id="32" name="Trigger" gid="2" x="800" y="256" width="32" height="32">
   <properties>
    <property name="id" value="fallSaws"/>
    <property name="radius" type="int" value="80"/>
   </properties>
  </object>
  <object id="33" name="FallSaw" gid="6" x="752" y="672" width="32" height="32"/>
  <object id="34" name="FallSaw" gid="6" x="784" y="672" width="32" height="32"/>
  <object id="35" name="Saw" gid="6" x="640" y="0" width="32" height="32"/>
  <object id="36" name="Saw" gid="6" x="640" y="-64" width="32" height="32"/>
  <object id="37" name="Saw" gid="6" x="640" y="-32" width="32" height="32"/>
  <object id="38" name="Saw" gid="6" x="832" y="0" width="32" height="32"/>
  <object id="39" name="Saw" gid="6" x="832" y="-64" width="32" height="32"/>
  <object id="40" name="Saw" gid="6" x="832" y="-32" width="32" height="32"/>
 </objectgroup>
</map>
