<?xml version="1.0" encoding="UTF-8"?>
<map version="1.10" tiledversion="1.12.2" orientation="orthogonal" renderorder="right-down" width="30" height="20" tilewidth="32" tileheight="32" infinite="0" nextlayerid="3" nextobjectid="46">
 <editorsettings>
  <export target="../../../maps/sector3/level4.lua" format="lua"/>
 </editorsettings>
 <tileset firstgid="1" name="Props" class="Saw" tilewidth="32" tileheight="32" tilecount="8" columns="0">
  <grid orientation="orthogonal" width="1" height="1"/>
  <tile id="0" type="Tile">
   <image source="../../../assets/images/test.png" width="32" height="32"/>
  </tile>
  <tile id="1" type="Placeholder">
   <image source="../../../assets/images/placeholder.png" width="32" height="32"/>
  </tile>
  <tile id="3" type="Spike">
   <image source="../../../assets/images/spike.png" width="32" height="16"/>
  </tile>
  <tile id="4" type="Goal">
   <image source="../../../assets/images/goal.png" width="32" height="32"/>
  </tile>
  <tile id="5" type="Saw">
   <image source="../../../assets/images/saw.png" width="32" height="32"/>
  </tile>
  <tile id="6" type="Spring">
   <image source="../../../assets/images/spring.png" width="32" height="32"/>
  </tile>
  <tile id="7" type="Booster">
   <image source="../../../assets/images/booster.png" width="32" height="32"/>
  </tile>
  <tile id="8" type="Laser">
   <image source="../../../assets/images/laser.png" width="32" height="32"/>
  </tile>
 </tileset>
 <layer id="1" name="Layout" width="30" height="20">
  <data encoding="csv">
1,1,1,1,1,0,1,1,1,0,1,1,0,0,0,0,1,1,1,1,0,0,0,0,0,0,1,1,1,1,
1,1,0,0,0,0,0,0,0,0,0,0,0,0,0,0,0,0,0,0,0,0,0,0,0,0,0,0,0,1,
1,1,0,0,0,0,0,0,0,0,0,0,0,0,0,0,0,0,0,0,0,0,0,0,0,0,0,0,0,1,
1,1,1,1,1,0,1,1,1,0,1,0,0,0,0,0,0,1,1,1,0,0,0,0,0,0,1,0,0,1,
1,1,0,0,0,0,0,0,0,0,0,0,0,0,0,0,0,0,0,0,0,0,0,0,0,0,1,0,0,1,
1,1,0,0,0,0,0,0,0,0,0,0,0,0,0,0,0,0,0,0,0,0,0,0,0,0,1,0,0,1,
1,1,0,0,0,0,0,0,0,0,0,0,0,0,0,0,0,0,0,0,0,0,0,0,0,0,0,0,0,1,
1,1,0,0,0,0,0,0,0,0,0,0,0,0,0,0,0,0,0,0,0,0,0,0,0,0,0,0,0,1,
1,1,0,0,0,1,1,1,1,1,1,1,1,1,1,1,1,1,1,1,1,1,1,1,1,1,1,1,1,1,
1,1,0,0,0,0,0,0,0,0,0,0,0,0,0,0,0,0,0,0,0,0,0,0,0,0,0,0,0,1,
1,1,0,0,0,0,0,0,0,0,0,0,0,0,0,0,0,0,0,0,0,0,0,0,0,0,0,0,0,1,
1,1,0,0,0,0,0,0,0,0,0,0,0,0,0,0,0,0,0,0,0,0,0,0,0,0,0,0,0,1,
1,1,0,0,0,0,0,0,0,0,0,0,0,0,0,0,0,0,0,0,0,0,0,0,0,0,0,0,0,1,
1,1,0,0,0,0,0,0,0,0,0,0,0,0,0,0,0,0,0,0,0,0,0,0,0,0,0,0,0,1,
1,1,0,0,0,0,0,0,0,0,0,0,0,0,0,0,0,0,0,0,0,0,0,0,0,0,0,0,0,1,
1,1,0,0,0,0,0,0,0,0,0,0,0,0,0,0,0,0,0,0,0,0,0,0,0,0,0,0,0,1,
1,1,0,0,0,0,0,0,0,0,0,0,0,0,0,0,0,0,0,0,0,0,0,0,0,0,0,0,0,1,
1,1,0,0,0,0,0,0,0,0,0,0,0,0,0,0,0,0,0,0,0,0,0,0,0,0,0,0,0,1,
1,1,0,0,0,0,0,0,0,0,0,0,0,0,0,0,0,0,0,0,0,0,0,0,0,0,0,0,0,1,
1,1,1,1,1,1,1,1,1,1,1,1,1,1,1,1,1,1,1,1,1,1,1,1,1,1,1,1,1,1
</data>
 </layer>
 <objectgroup id="2" name="Objects">
  <object id="1" name="Laser" gid="9" x="160" y="128" width="32" height="32">
   <properties>
    <property name="group" type="int" value="1"/>
    <property name="intermiTime" type="int" value="2"/>
   </properties>
  </object>
  <object id="2" name="Laser" gid="9" x="160" y="32" width="32" height="32">
   <properties>
    <property name="group" type="int" value="1"/>
    <property name="intermiTime" type="int" value="2"/>
   </properties>
  </object>
  <object id="3" name="Spawnpoint" gid="2" x="96" y="96" width="32" height="32"/>
  <object id="4" name="Goal" gid="5" x="864" y="608" width="32" height="32"/>
  <object id="6" name="Laser" gid="9" x="288" y="32" width="32" height="32">
   <properties>
    <property name="group" type="int" value="2"/>
    <property name="intermiTime" type="int" value="1"/>
   </properties>
  </object>
  <object id="7" name="Laser" gid="9" x="288" y="128" width="32" height="32">
   <properties>
    <property name="group" type="int" value="2"/>
    <property name="intermiTime" type="int" value="1"/>
   </properties>
  </object>
  <object id="8" name="Laser" gid="9" x="352" y="128" width="32" height="32">
   <properties>
    <property name="group" type="int" value="3"/>
   </properties>
  </object>
  <object id="9" name="Laser" gid="9" x="512" y="128" width="32" height="32">
   <properties>
    <property name="group" type="int" value="3"/>
   </properties>
  </object>
  <object id="10" name="Saw" gid="6" x="352" y="0" width="32" height="32"/>
  <object id="11" name="Saw" gid="6" x="352" y="-32" width="32" height="32"/>
  <object id="12" name="Saw" gid="6" x="512" y="0" width="32" height="32"/>
  <object id="13" name="Saw" gid="6" x="512" y="-32" width="32" height="32"/>
  <object id="28" name="Laser" gid="9" x="640" y="128" width="32" height="32">
   <properties>
    <property name="group" type="int" value="4"/>
    <property name="isFake" type="bool" value="true"/>
   </properties>
  </object>
  <object id="29" name="Laser" gid="9" x="800" y="128" width="32" height="32">
   <properties>
    <property name="group" type="int" value="4"/>
    <property name="isFake" type="bool" value="true"/>
   </properties>
  </object>
  <object id="30" name="Saw" gid="6" x="608" y="0" width="32" height="32"/>
  <object id="31" name="Saw" gid="6" x="608" y="-32" width="32" height="32"/>
  <object id="32" name="Saw" gid="6" x="832" y="0" width="32" height="32"/>
  <object id="33" name="Saw" gid="6" x="832" y="-32" width="32" height="32"/>
  <object id="34" name="Trigger" gid="2" x="880" y="160" width="32" height="32">
   <properties>
    <property name="id" value="spawnSaws"/>
    <property name="radius" type="int" value="64"/>
   </properties>
  </object>
  <object id="35" name="MovLaser" gid="9" x="576" y="256" width="32" height="32">
   <properties>
    <property name="endY" type="int" value="160"/>
    <property name="group" type="int" value="5"/>
    <property name="speed" type="int" value="250"/>
   </properties>
  </object>
  <object id="36" name="MovLaser" gid="9" x="256" y="160" width="32" height="32">
   <properties>
    <property name="endY" type="int" value="256"/>
    <property name="group" type="int" value="5"/>
    <property name="speed" type="int" value="250"/>
   </properties>
  </object>
  <object id="37" name="FutureLaser" gid="9" x="128" y="160" width="32" height="32">
   <properties>
    <property name="endY" type="int" value="256"/>
    <property name="group" type="int" value="5"/>
    <property name="speed" type="int" value="50"/>
   </properties>
  </object>
  <object id="38" name="Trigger" gid="2" x="256" y="256" width="32" height="32">
   <properties>
    <property name="id" value="futureLaser"/>
    <property name="radius" type="int" value="64"/>
   </properties>
  </object>
  <object id="39" name="Laser" gid="9" x="160" y="640" width="32" height="32">
   <properties>
    <property name="group" type="int" value="6"/>
   </properties>
  </object>
  <object id="41" name="Laser" gid="9" x="288" y="288" width="32" height="32">
   <properties>
    <property name="group" type="int" value="6"/>
   </properties>
  </object>
  <object id="42" name="Laser" gid="9" x="384" y="640" width="32" height="32">
   <properties>
    <property name="group" type="int" value="6"/>
   </properties>
  </object>
  <object id="43" name="Laser" gid="9" x="576" y="288" width="32" height="32">
   <properties>
    <property name="group" type="int" value="6"/>
   </properties>
  </object>
  <object id="44" name="Laser" gid="9" x="576" y="640" width="32" height="32">
   <properties>
    <property name="group" type="int" value="6"/>
   </properties>
  </object>
  <object id="45" name="Laser" gid="9" x="416" y="448" width="32" height="32">
   <properties>
    <property name="group" type="int" value="6"/>
   </properties>
  </object>
 </objectgroup>
</map>
