<?xml version="1.0" encoding="UTF-8"?>
<map version="1.10" tiledversion="1.12.2" orientation="orthogonal" renderorder="right-down" width="30" height="20" tilewidth="32" tileheight="32" infinite="0" nextlayerid="3" nextobjectid="61">
 <editorsettings>
  <export target="../../../maps/sector3/level1.lua" format="lua"/>
 </editorsettings>
 <tileset firstgid="1" name="Props" class="Saw" tilewidth="32" tileheight="32" tilecount="7" columns="0">
  <grid orientation="orthogonal" width="1" height="1"/>
  <tile id="0" type="Tile">
   <image source="../../../src/assets/images/test.png" width="32" height="32"/>
  </tile>
  <tile id="1" type="Placeholder">
   <image source="../../../src/assets/images/placeholder.png" width="32" height="32"/>
  </tile>
  <tile id="3" type="Spike">
   <image source="../../../src/assets/images/spike.png" width="32" height="16"/>
  </tile>
  <tile id="4" type="Goal">
   <image source="../../../src/assets/images/goal.png" width="32" height="32"/>
  </tile>
  <tile id="5" type="Saw">
   <image source="../../../src/assets/images/saw.png" width="32" height="32"/>
  </tile>
  <tile id="6" type="Spring">
   <image source="../../../src/assets/images/spring.png" width="32" height="32"/>
  </tile>
  <tile id="7" type="Booster">
   <image source="../../../src/assets/images/booster.png" width="32" height="32"/>
  </tile>
 </tileset>
 <layer id="1" name="Layout" width="30" height="20">
  <properties>
   <property name="id" value="removeTiles"/>
   <property name="radius" type="int" value="48"/>
  </properties>
  <data encoding="csv">
0,0,0,0,0,0,0,0,0,0,0,0,0,0,0,0,0,0,0,0,0,0,0,0,0,0,0,0,0,0,
1,1,1,1,1,1,0,0,0,0,0,0,0,0,0,0,0,0,0,0,0,0,0,0,0,0,0,0,0,1,
1,0,0,0,0,0,0,0,0,0,0,0,0,0,0,0,0,0,0,0,0,0,0,0,0,0,0,0,0,1,
1,0,0,0,0,0,0,1,0,1,0,1,0,1,0,1,0,1,0,1,0,1,0,1,0,1,0,0,0,1,
1,0,0,0,0,0,0,0,0,0,0,0,0,0,0,0,0,0,0,0,0,0,0,0,0,0,0,0,0,1,
1,0,0,0,0,0,0,0,0,0,0,0,0,0,0,0,0,0,0,0,0,0,0,0,0,0,0,0,0,1,
1,0,0,0,1,1,1,1,1,1,1,1,1,1,1,1,1,1,1,1,1,1,1,1,1,1,1,1,1,1,
1,0,0,0,0,0,0,0,0,0,0,0,0,0,0,0,0,0,0,0,0,0,0,0,0,0,0,0,0,0,
1,0,0,0,0,0,0,0,0,0,0,0,0,0,0,0,0,0,0,0,0,0,0,0,0,0,0,0,0,0,
1,1,1,1,1,1,1,1,1,1,1,1,1,1,1,1,1,1,1,1,1,1,1,1,1,1,0,0,0,0,
1,0,0,0,0,0,0,0,0,0,0,0,0,0,0,0,0,0,0,0,0,0,0,0,0,0,0,0,0,0,
1,0,0,0,0,0,0,0,0,0,0,0,0,0,0,0,0,0,0,0,0,0,0,0,0,0,0,0,0,0,
1,0,0,0,1,1,1,1,1,1,1,1,1,1,1,1,1,1,1,1,1,1,1,1,1,1,1,1,1,1,
1,0,0,0,0,0,0,0,0,0,0,0,0,0,0,0,0,0,0,0,0,0,0,0,0,0,0,0,0,1,
1,0,0,0,0,0,0,0,0,0,0,0,0,0,0,0,0,0,0,0,0,0,0,0,0,0,0,0,0,1,
1,1,1,1,1,1,1,1,1,1,1,1,1,1,1,1,1,1,1,1,1,1,1,1,1,1,0,0,0,1,
1,0,0,0,0,0,0,0,0,0,0,0,0,0,0,0,0,0,0,0,0,0,0,0,0,0,0,0,0,1,
1,0,0,0,0,0,0,0,0,0,0,0,0,0,0,0,0,0,0,0,0,0,0,0,0,0,0,0,0,0,
1,0,0,0,0,0,0,0,0,0,0,0,0,1,0,0,0,0,0,0,0,0,0,0,0,0,0,0,0,0,
1,1,1,1,0,0,1,0,0,1,0,0,1,1,1,1,1,1,1,1,1,1,1,1,1,1,1,1,1,1
</data>
 </layer>
 <objectgroup id="2" name="Objects">
  <object id="1" name="Spawnpoint" gid="2" x="64" y="32" width="32" height="32"/>
  <object id="2" name="Goal" gid="5" x="64" y="576" width="32" height="32"/>
  <object id="3" name="Saw" gid="6" x="256" y="128" width="32" height="32"/>
  <object id="4" name="Saw" gid="6" x="192" y="128" width="32" height="32"/>
  <object id="5" name="Saw" gid="6" x="384" y="128" width="32" height="32"/>
  <object id="6" name="Saw" gid="6" x="448" y="129" width="32" height="32"/>
  <object id="7" name="Saw" gid="6" x="576" y="128" width="32" height="32"/>
  <object id="8" name="Saw" gid="6" x="640" y="128" width="32" height="32"/>
  <object id="9" name="Saw" gid="6" x="768" y="129" width="32" height="32"/>
  <object id="10" name="Spike" gid="4" x="928" y="32" width="32" height="16"/>
  <object id="12" name="Saw" gid="6" x="704" y="128" width="32" height="32"/>
  <object id="13" name="Saw" gid="6" x="512" y="128" width="32" height="32"/>
  <object id="14" name="Saw" gid="6" x="320" y="128" width="32" height="32"/>
  <object id="15" name="InviSpike" gid="4" x="416" y="96" width="32" height="16">
   <properties>
    <property name="radius" type="int" value="48"/>
   </properties>
  </object>
  <object id="16" name="InviSpike" gid="4" x="736" y="96" width="32" height="16">
   <properties>
    <property name="radius" type="int" value="48"/>
   </properties>
  </object>
  <object id="17" name="Trigger" gid="2" x="608" y="64" width="32" height="32">
   <properties>
    <property name="id" value="futureSaw"/>
    <property name="radius" type="int" value="48"/>
   </properties>
  </object>
  <object id="18" name="FutureSaw" gid="6" x="608" y="672" width="32" height="32">
   <properties>
    <property name="speed" type="int" value="2500"/>
   </properties>
  </object>
  <object id="19" name="Trigger" gid="2" x="608" y="192" width="32" height="32">
   <properties>
    <property name="id" value="returnSaw"/>
    <property name="radius" type="int" value="48"/>
   </properties>
  </object>
  <object id="20" name="Trigger" gid="2" x="96" y="224" width="32" height="32">
   <properties>
    <property name="id" value="spawnSaw"/>
    <property name="radius" type="int" value="64"/>
   </properties>
  </object>
  <object id="23" name="Booster" gid="8" x="128" y="272" width="32" height="32" rotation="90">
   <properties>
    <property name="speed" type="int" value="4500"/>
   </properties>
  </object>
  <object id="27" name="MovSaw" gid="6" x="928" y="384" width="32" height="32">
   <properties>
    <property name="speed" type="int" value="400"/>
   </properties>
  </object>
  <object id="28" name="Trigger" gid="2" x="512" y="384" width="32" height="32">
   <properties>
    <property name="id" value="movSaw"/>
    <property name="radius" type="int" value="48"/>
   </properties>
  </object>
  <object id="31" name="Booster" gid="8" x="864" y="608" width="32" height="32" rotation="-90">
   <properties>
    <property name="speed" type="int" value="-1000"/>
   </properties>
  </object>
  <object id="33" name="Trigger" gid="2" x="896" y="608" width="32" height="32">
   <properties>
    <property name="id" value="fakeTiles"/>
    <property name="radius" type="int" value="48"/>
   </properties>
  </object>
  <object id="34" name="FakeTile" gid="1" x="928" y="576" width="32" height="32"/>
  <object id="35" name="FakeTile" gid="1" x="928" y="608" width="32" height="32"/>
  <object id="36" name="Saw" gid="6" x="224" y="448" width="32" height="32"/>
  <object id="37" name="Saw" gid="6" x="160" y="448" width="32" height="32"/>
  <object id="38" name="Saw" gid="6" x="192" y="448" width="32" height="32"/>
  <object id="39" name="Saw" gid="6" x="256" y="448" width="32" height="32"/>
  <object id="40" name="Saw" gid="6" x="320" y="448" width="32" height="32"/>
  <object id="41" name="Saw" gid="6" x="352" y="448" width="32" height="32"/>
  <object id="42" name="Saw" gid="6" x="416" y="448" width="32" height="32"/>
  <object id="43" name="Saw" gid="6" x="384" y="448" width="32" height="32"/>
  <object id="44" name="Saw" gid="6" x="288" y="448" width="32" height="32"/>
  <object id="45" name="Saw" gid="6" x="128" y="448" width="32" height="32"/>
  <object id="48" name="Saw" gid="6" x="544" y="448" width="32" height="32"/>
  <object id="49" name="Saw" gid="6" x="480" y="448" width="32" height="32"/>
  <object id="50" name="Saw" gid="6" x="512" y="448" width="32" height="32"/>
  <object id="51" name="Saw" gid="6" x="576" y="448" width="32" height="32"/>
  <object id="52" name="Saw" gid="6" x="640" y="448" width="32" height="32"/>
  <object id="53" name="Saw" gid="6" x="672" y="448" width="32" height="32"/>
  <object id="54" name="Saw" gid="6" x="736" y="448" width="32" height="32"/>
  <object id="55" name="Saw" gid="6" x="704" y="448" width="32" height="32"/>
  <object id="56" name="Saw" gid="6" x="608" y="448" width="32" height="32"/>
  <object id="57" name="Saw" gid="6" x="448" y="448" width="32" height="32"/>
  <object id="58" name="Saw" gid="6" x="768" y="448" width="32" height="32"/>
  <object id="59" name="Saw" gid="6" x="800" y="448" width="32" height="32"/>
  <object id="60" name="Booster" gid="8" x="32" y="480" width="32" height="32" rotation="90">
   <properties>
    <property name="speed" type="int" value="4000"/>
   </properties>
  </object>
 </objectgroup>
</map>
