<?xml version="1.0" encoding="UTF-8"?>
<map version="1.10" tiledversion="1.12.2" orientation="orthogonal" renderorder="right-down" width="30" height="20" tilewidth="32" tileheight="32" infinite="0" nextlayerid="3" nextobjectid="12">
 <editorsettings>
  <export target="../../../maps/sector2/level1.lua" format="lua"/>
 </editorsettings>
 <tileset firstgid="1" name="Props" class="Saw" tilewidth="32" tileheight="32" tilecount="5" columns="0">
  <grid orientation="orthogonal" width="1" height="1"/>
  <tile id="0" type="Tile">
   <image source="../../../assets/images/test.png" width="32" height="32"/>
  </tile>
  <tile id="1" type="Placeholder">
   <image source="../../../assets/images/placeholder.png" width="32" height="32"/>
  </tile>
  <tile id="3" type="Spike">
   <image source="../../../assets/images/spike.png" width="32" height="16"/>
  </tile>
  <tile id="4" type="Goal">
   <image source="../../../assets/images/goal.png" width="32" height="32"/>
  </tile>
  <tile id="5" type="Saw">
   <image source="../../../assets/images/saw.png" width="32" height="32"/>
  </tile>
 </tileset>
 <layer id="1" name="Layout" width="30" height="20">
  <data encoding="csv">
1,1,1,0,0,0,0,0,0,0,0,0,0,0,0,0,0,0,0,0,0,0,0,0,0,0,0,1,1,1,
1,1,1,0,0,0,0,0,0,0,0,0,0,0,0,0,0,0,0,0,0,0,0,0,0,0,0,1,1,1,
1,1,1,0,0,0,0,0,0,0,0,0,0,0,0,0,0,0,0,0,0,0,0,0,0,0,0,1,1,1,
1,1,1,1,1,1,1,0,0,0,0,0,0,0,0,0,0,0,0,0,0,0,0,0,0,0,0,1,1,1,
1,1,1,0,0,0,0,0,0,0,0,0,0,0,0,0,0,0,0,0,0,0,0,0,0,0,0,1,1,1,
1,1,1,0,0,0,0,0,0,0,0,0,0,0,0,0,0,0,0,0,0,0,0,0,0,0,0,1,1,1,
1,1,1,0,0,0,0,0,0,0,0,0,0,0,0,0,0,0,0,0,0,0,0,0,0,0,0,1,1,1,
1,1,1,0,0,0,0,0,0,0,0,0,0,0,0,0,0,0,0,0,0,0,0,0,0,0,0,1,1,1,
1,1,1,0,0,0,0,0,0,0,0,0,0,0,0,0,0,0,0,0,0,0,0,0,0,0,0,1,1,1,
1,1,1,0,0,0,0,0,0,0,0,0,0,0,0,0,0,0,0,0,0,0,0,0,0,0,0,1,1,1,
1,1,1,0,0,0,0,0,0,0,0,0,0,0,0,0,0,0,0,0,0,0,0,0,0,0,0,1,1,1,
1,1,1,0,0,0,0,0,0,0,0,0,0,0,0,0,0,0,0,0,0,0,0,0,0,0,0,1,1,1,
1,1,1,0,0,0,0,0,0,0,0,0,0,0,0,0,0,0,0,0,0,0,0,0,0,0,0,1,1,1,
1,1,1,0,0,0,0,0,0,0,0,0,0,0,0,0,0,0,0,0,0,0,0,0,0,0,0,1,1,1,
1,1,1,0,0,0,0,0,0,0,0,0,0,0,0,0,0,0,0,0,0,0,0,0,0,0,0,1,1,1,
1,1,1,0,0,0,0,0,0,0,0,0,0,0,0,0,0,0,0,0,0,0,0,0,0,0,0,1,1,1,
1,1,1,0,0,0,0,0,0,0,0,0,0,0,0,0,0,0,0,0,0,0,0,0,0,0,0,1,1,1,
1,1,1,0,0,0,0,0,0,0,0,0,0,0,0,0,0,0,0,0,0,0,0,0,0,0,0,1,1,1,
1,1,1,0,0,0,0,0,0,0,0,0,0,0,0,0,0,0,0,0,0,0,0,0,1,1,1,1,1,1,
1,1,1,0,0,0,0,0,0,0,0,0,0,0,0,0,0,0,0,0,0,0,0,0,0,0,0,1,1,1
</data>
 </layer>
 <objectgroup id="2" name="Objects">
  <object id="1" name="Spawnpoint" gid="2" x="128" y="64" width="32" height="32"/>
  <object id="2" name="Goal" gid="5" x="800" y="576" width="32" height="32"/>
  <object id="3" name="MovPlat" gid="2" x="-64" y="320" width="32" height="32">
   <properties>
    <property name="speed" type="int" value="100"/>
   </properties>
  </object>
  <object id="6" name="SpawnSaw" gid="2" x="-64" y="416" width="32" height="32">
   <properties>
    <property name="order" type="int" value="1"/>
    <property name="speed" type="int" value="100"/>
   </properties>
  </object>
  <object id="7" name="SpawnSaw" gid="2" x="-64" y="448" width="32" height="32">
   <properties>
    <property name="order" type="int" value="2"/>
    <property name="speed" type="int" value="100"/>
   </properties>
  </object>
  <object id="8" name="SpawnSaw" gid="2" x="-64" y="480" width="32" height="32">
   <properties>
    <property name="order" type="int" value="3"/>
    <property name="speed" type="int" value="100"/>
   </properties>
  </object>
  <object id="9" gid="2" x="480" y="320" width="32" height="32"/>
  <object id="10" name="SpawnSaw" gid="2" x="-64" y="512" width="32" height="32">
   <properties>
    <property name="order" type="int" value="4"/>
    <property name="speed" type="int" value="100"/>
   </properties>
  </object>
  <object id="11" name="SpawnSaw" gid="2" x="-64" y="544" width="32" height="32">
   <properties>
    <property name="isFake" type="bool" value="true"/>
    <property name="order" type="int" value="5"/>
    <property name="speed" type="int" value="100"/>
   </properties>
  </object>
 </objectgroup>
</map>
