<?xml version="1.0" encoding="UTF-8"?>
<map version="1.10" tiledversion="1.12.2" orientation="orthogonal" renderorder="right-down" width="30" height="20" tilewidth="32" tileheight="32" infinite="0" nextlayerid="3" nextobjectid="32">
 <editorsettings>
  <export target="../../../maps/sector2/level4.lua" format="lua"/>
 </editorsettings>
 <tileset firstgid="1" name="Props" class="Saw" tilewidth="32" tileheight="32" tilecount="7" columns="0">
  <grid orientation="orthogonal" width="1" height="1"/>
  <tile id="0" type="Tile">
   <image source="../../../assets/images/test.png" width="32" height="32"/>
  </tile>
  <tile id="1" type="Placeholder">
   <image source="../../../assets/images/placeholder.png" width="32" height="32"/>
  </tile>
  <tile id="3" type="Spike">
   <image source="../../../assets/images/spike.png" width="32" height="16"/>
  </tile>
  <tile id="4" type="Goal">
   <image source="../../../assets/images/goal.png" width="32" height="32"/>
  </tile>
  <tile id="5" type="Saw">
   <image source="../../../assets/images/saw.png" width="32" height="32"/>
  </tile>
  <tile id="6" type="Spring">
   <image source="../../../assets/images/spring.png" width="32" height="32"/>
  </tile>
  <tile id="7" type="Booster">
   <image source="../../../assets/images/booster.png" width="32" height="32"/>
  </tile>
 </tileset>
 <layer id="1" name="Layout" width="30" height="20">
  <data encoding="csv">
0,0,0,0,0,0,0,0,0,0,0,0,0,0,0,0,0,0,0,0,0,0,0,0,0,0,0,0,0,0,
0,0,0,0,0,0,0,0,0,0,0,0,0,0,0,0,0,0,0,0,0,0,0,0,0,0,0,0,0,0,
0,0,0,0,0,0,0,0,0,0,0,0,0,0,0,0,0,0,0,0,0,0,0,0,0,0,0,0,0,0,
1,1,1,1,0,0,0,0,0,0,0,0,0,0,0,0,0,0,0,0,0,0,0,0,0,0,0,0,0,0,
1,1,1,1,0,0,0,0,0,0,0,0,0,0,0,0,0,0,0,0,0,0,0,0,0,0,0,0,0,0,
1,1,1,0,0,0,0,0,0,0,0,0,0,0,0,0,0,0,0,0,0,0,0,0,0,0,0,0,0,0,
1,1,0,0,0,0,0,0,0,1,1,1,0,0,0,0,0,0,0,0,0,0,0,1,1,1,1,1,0,0,
1,0,0,0,0,0,0,0,0,0,1,0,0,0,0,0,0,0,0,0,0,0,0,0,0,0,0,0,0,0,
0,0,0,0,0,0,0,0,0,0,1,0,0,0,0,0,0,0,0,0,0,0,0,0,0,0,0,0,0,0,
0,0,0,0,0,0,0,0,0,0,1,0,1,1,1,1,1,1,1,1,1,1,1,1,1,1,1,1,1,1,
0,0,0,0,0,0,0,0,0,0,1,0,0,0,0,0,0,0,0,0,0,0,0,0,0,0,0,0,0,0,
0,0,0,0,0,0,0,0,0,0,1,0,0,0,0,0,0,0,0,0,0,0,0,0,0,0,0,0,0,0,
0,0,0,0,0,0,0,0,0,0,1,0,0,0,0,0,0,0,0,0,0,0,0,0,0,0,0,0,0,0,
0,0,0,0,0,0,0,0,0,0,1,0,0,0,0,0,0,0,0,0,0,0,0,0,0,0,0,0,0,0,
0,0,0,0,0,0,0,0,0,0,1,0,0,0,0,0,0,0,0,0,0,0,0,0,0,0,0,0,0,0,
0,0,0,0,0,0,0,0,0,0,1,0,0,0,0,0,0,0,0,0,0,0,0,0,0,0,0,0,0,0,
0,0,0,0,0,0,0,0,0,0,1,0,0,0,0,0,0,0,0,0,0,0,0,0,0,0,0,0,0,0,
0,0,0,0,0,0,0,0,0,0,0,0,0,0,0,0,0,0,0,0,0,0,0,0,0,0,0,0,0,0,
0,0,0,0,0,0,0,0,0,0,0,0,0,0,0,0,0,0,0,0,0,0,0,0,0,0,0,0,0,0,
0,0,0,0,0,0,1,0,0,0,0,0,0,1,1,0,0,0,1,0,0,0,0,1,1,1,1,1,1,1
</data>
 </layer>
 <objectgroup id="2" name="Objects">
  <object id="1" name="Spawnpoint" gid="2" x="32" y="64" width="32" height="32"/>
  <object id="2" name="Goal" gid="5" x="928" y="608" width="32" height="32"/>
  <object id="4" name="Spring" gid="7" x="192" y="608" width="32" height="32"/>
  <object id="5" name="Saw" gid="6" x="192" y="64" width="32" height="32"/>
  <object id="6" name="Saw" gid="6" x="192" y="32" width="32" height="32"/>
  <object id="9" name="Saw" gid="6" x="192" y="96" width="32" height="32"/>
  <object id="10" name="Saw" gid="6" x="192" y="128" width="32" height="32"/>
  <object id="11" name="Saw" gid="6" x="192" y="160" width="32" height="32"/>
  <object id="12" name="Saw" gid="6" x="192" y="192" width="32" height="32"/>
  <object id="13" name="Saw" gid="6" x="192" y="224" width="32" height="32"/>
  <object id="15" name="Booster" gid="8" x="384" y="192" width="32" height="32" rotation="60">
   <properties>
    <property name="speed" type="int" value="2500"/>
   </properties>
  </object>
  <object id="16" name="Saw" gid="6" x="384" y="256" width="32" height="32"/>
  <object id="17" name="Saw" gid="6" x="416" y="256" width="32" height="32"/>
  <object id="18" name="Saw" gid="6" x="448" y="256" width="32" height="32"/>
  <object id="19" name="Saw" gid="6" x="480" y="256" width="32" height="32"/>
  <object id="20" name="Saw" gid="6" x="512" y="256" width="32" height="32"/>
  <object id="21" name="Saw" gid="6" x="544" y="256" width="32" height="32"/>
  <object id="22" name="Saw" gid="6" x="576" y="256" width="32" height="32"/>
  <object id="23" name="Saw" gid="6" x="608" y="256" width="32" height="32"/>
  <object id="24" name="Saw" gid="6" x="640" y="256" width="32" height="32"/>
  <object id="25" name="Saw" gid="6" x="672" y="256" width="32" height="32"/>
  <object id="26" name="Saw" gid="6" x="704" y="256" width="32" height="32"/>
  <object id="27" name="Booster" gid="8" x="352" y="608" width="32" height="32" rotation="60">
   <properties>
    <property name="speed" type="int" value="-2500"/>
   </properties>
  </object>
  <object id="28" name="Trigger" gid="2" x="576" y="608" width="32" height="32">
   <properties>
    <property name="id" value="spawnSaw"/>
    <property name="radius" type="int" value="64"/>
   </properties>
  </object>
  <object id="30" name="FutureSaw" gid="6" x="-32" y="608" width="32" height="32">
   <properties>
    <property name="speed" type="int" value="2000"/>
   </properties>
  </object>
  <object id="31" name="InviSpike" gid="4" x="832" y="608" width="32" height="16">
   <properties>
    <property name="radius" type="int" value="48"/>
   </properties>
  </object>
 </objectgroup>
</map>
