<?xml version="1.0" encoding="UTF-8"?>
<map version="1.10" tiledversion="1.12.2" orientation="orthogonal" renderorder="right-down" width="30" height="20" tilewidth="32" tileheight="32" infinite="0" nextlayerid="6" nextobjectid="57">
 <editorsettings>
  <export target="../../../maps/sector2/level3.lua" format="lua"/>
 </editorsettings>
 <tileset firstgid="1" name="Props" class="Saw" tilewidth="32" tileheight="32" tilecount="5" columns="0">
  <grid orientation="orthogonal" width="1" height="1"/>
  <tile id="0" type="Tile">
   <image source="../../../assets/images/test.png" width="32" height="32"/>
  </tile>
  <tile id="1" type="Placeholder">
   <image source="../../../assets/images/placeholder.png" width="32" height="32"/>
  </tile>
  <tile id="3" type="Spike">
   <image source="../../../assets/images/spike.png" width="32" height="16"/>
  </tile>
  <tile id="4" type="Goal">
   <image source="../../../assets/images/goal.png" width="32" height="32"/>
  </tile>
  <tile id="5" type="Saw">
   <image source="../../../assets/images/saw.png" width="32" height="32"/>
  </tile>
 </tileset>
 <layer id="1" name="Layout" width="30" height="20">
  <data encoding="csv">
0,0,0,0,0,0,0,0,0,0,0,0,0,0,0,0,0,0,0,0,0,0,0,0,0,0,0,0,0,0,
0,0,0,0,0,0,0,0,0,0,0,0,0,0,0,0,0,0,0,0,0,0,0,0,0,0,0,0,0,0,
0,0,0,0,0,0,0,0,0,0,0,0,0,0,0,0,0,0,1,0,0,0,1,0,0,0,0,0,0,0,
0,1,1,1,1,1,1,0,0,0,0,0,0,0,1,0,0,0,0,0,0,0,0,0,0,0,0,0,0,0,
1,1,1,0,0,0,0,0,0,0,0,0,1,0,0,0,0,0,0,0,0,0,0,0,0,0,0,0,0,0,
0,1,1,0,0,0,0,0,0,0,0,0,0,0,0,0,0,0,0,0,0,0,0,0,0,0,1,0,0,0,
0,1,1,0,0,0,0,0,0,0,0,0,0,0,0,0,0,0,0,0,0,0,0,0,0,0,0,0,0,0,
0,1,1,0,0,0,0,0,0,0,0,0,0,0,0,0,0,0,0,0,0,0,0,0,0,0,0,0,0,0,
0,1,1,0,0,0,0,0,0,0,0,0,0,0,0,0,0,0,0,0,0,0,0,0,0,0,0,0,0,0,
0,1,1,0,0,0,0,0,0,0,0,0,0,0,0,0,0,0,0,0,0,0,0,0,0,0,0,0,0,0,
0,1,1,0,0,0,0,0,0,0,0,0,0,0,0,0,0,0,0,0,0,0,0,0,0,0,0,0,0,0,
0,1,1,0,0,0,0,0,0,0,0,0,0,0,0,0,0,0,0,0,0,0,0,0,0,0,0,0,0,0,
0,1,1,0,0,0,0,0,0,0,0,0,0,0,0,0,0,0,0,0,0,0,0,0,0,0,0,0,0,1,
1,1,1,0,0,0,0,0,0,0,0,0,0,0,0,0,0,0,0,0,0,0,0,0,0,0,0,0,0,0,
1,1,0,0,0,0,0,0,0,0,0,0,0,0,0,0,0,0,0,0,0,0,0,0,0,0,0,0,0,0,
1,0,0,0,0,0,0,0,0,0,0,0,0,0,0,0,0,0,0,0,0,0,0,0,0,0,0,0,0,0,
1,0,0,0,0,0,0,0,0,0,0,0,0,0,0,0,0,0,0,0,0,0,0,0,0,0,1,0,0,0,
1,0,0,0,0,0,0,0,0,0,0,0,0,0,0,0,0,0,0,0,0,0,0,0,0,0,0,0,0,0,
1,0,0,0,0,0,0,0,0,0,0,0,0,0,0,0,1,0,0,0,0,0,0,0,0,0,0,0,0,0,
1,1,1,1,1,1,0,0,0,0,1,1,0,0,0,0,0,0,0,0,0,0,0,0,0,0,0,0,0,0
</data>
 </layer>
 <objectgroup id="2" name="Objects">
  <object id="1" name="Spawnpoint" gid="2" x="128" y="96" width="32" height="32"/>
  <object id="2" name="Goal" gid="5" x="96" y="608" width="32" height="32"/>
  <object id="20" name="Saw" gid="6" x="128" y="320" width="32" height="32"/>
  <object id="21" name="Saw" gid="6" x="96" y="320" width="32" height="32"/>
  <object id="22" name="Saw" gid="6" x="160" y="320" width="32" height="32"/>
  <object id="23" name="Saw" gid="6" x="192" y="320" width="32" height="32"/>
  <object id="24" name="Saw" gid="6" x="224" y="320" width="32" height="32"/>
  <object id="25" name="Saw" gid="6" x="288" y="320" width="32" height="32"/>
  <object id="26" name="Saw" gid="6" x="256" y="320" width="32" height="32"/>
  <object id="27" name="Saw" gid="6" x="320" y="320" width="32" height="32"/>
  <object id="28" name="Saw" gid="6" x="352" y="320" width="32" height="32"/>
  <object id="29" name="Saw" gid="6" x="384" y="320" width="32" height="32"/>
  <object id="30" name="Saw" gid="6" x="448" y="320" width="32" height="32"/>
  <object id="31" name="Saw" gid="6" x="416" y="320" width="32" height="32"/>
  <object id="32" name="Saw" gid="6" x="480" y="320" width="32" height="32"/>
  <object id="33" name="Saw" gid="6" x="512" y="320" width="32" height="32"/>
  <object id="34" name="Saw" gid="6" x="544" y="320" width="32" height="32"/>
  <object id="35" name="Saw" gid="6" x="608" y="320" width="32" height="32"/>
  <object id="36" name="Saw" gid="6" x="576" y="320" width="32" height="32"/>
  <object id="37" name="Saw" gid="6" x="640" y="320" width="32" height="32"/>
  <object id="38" name="Saw" gid="6" x="672" y="320" width="32" height="32"/>
  <object id="39" name="Saw" gid="6" x="704" y="320" width="32" height="32"/>
  <object id="40" name="Saw" gid="6" x="768" y="320" width="32" height="32"/>
  <object id="41" name="Saw" gid="6" x="736" y="320" width="32" height="32"/>
  <object id="42" name="Saw" gid="6" x="800" y="320" width="32" height="32"/>
  <object id="45" name="InviSpike" gid="4" x="928" y="384" width="32" height="16">
   <properties>
    <property name="radius" type="int" value="128"/>
   </properties>
  </object>
  <object id="47" name="Portal" gid="2" x="800" y="640" width="32" height="32">
   <properties>
    <property name="pair" type="int" value="1"/>
   </properties>
  </object>
  <object id="48" name="Portal" gid="2" x="512" y="416" width="32" height="32">
   <properties>
    <property name="isInvisible" type="bool" value="true"/>
    <property name="pair" type="int" value="1"/>
   </properties>
  </object>
  <object id="49" name="Portal" gid="2" x="128" y="192" width="32" height="32">
   <properties>
    <property name="pair" type="int" value="2"/>
   </properties>
  </object>
  <object id="50" name="Trigger" gid="2" x="672" y="544" width="32" height="32">
   <properties>
    <property name="id" value="fakeTile"/>
    <property name="radius" type="int" value="96"/>
   </properties>
  </object>
  <object id="51" name="Tile" gid="1" x="672" y="576" width="32" height="32">
   <properties>
    <property name="id" value="Fake"/>
   </properties>
  </object>
  <object id="52" name="Tile" gid="1" x="256" y="192" width="32" height="32">
   <properties>
    <property name="id" value="Mov"/>
   </properties>
  </object>
  <object id="53" name="Trigger" gid="2" x="352" y="128" width="32" height="32">
   <properties>
    <property name="id" value="movTile"/>
    <property name="radius" type="int" value="128"/>
   </properties>
  </object>
  <object id="55" gid="2" x="256" y="64" width="32" height="32"/>
 </objectgroup>
</map>
